Simply-White-Circles/scalable/apps/gdm-setup.svg

<svg xmlns="http://www.w3.org/2000/svg" width="48" height="48" viewBox="0 0 12.7 12.7"><path fill="#e6e6e6" d="M6.344.073a6.29 6.29 0 0 0-6.29 6.29 6.29 6.29 0 0 0 6.29 6.288 6.29 6.29 0 0 0 6.29-6.289 6.29 6.29 0 0 0-6.29-6.29zm-.018.936a5.407 5.407 0 0 1 5.407 5.407 5.407 5.407 0 0 1-5.02 5.393l.01-2.075h3.528c.212 0 .382-.17.382-.382V3.434a.381.381 0 0 0-.382-.381H2.424a.38.38 0 0 0-.382.381v5.918c0 .212.17.382.382.382H5.89l-.009 2.067A5.407 5.407 0 0 1 .92 6.416 5.407 5.407 0 0 1 6.326 1.01zM2.815 3.521h7.023c.19 0 .342.148.342.331v5.13c0 .183-.153.33-.342.33H6.724l.003-.593c0-.272.055-.46.12-.587a.764.764 0 0 0 .395-.428c.08-.235.032-.546-.11-.8a.066.066 0 0 0-.066-.034c-.028.002-.052.018-.06.042l-.22.641c-.019.058-.088.094-.184.11a.904.904 0 0 1-.35-.027.841.841 0 0 1-.31-.143c-.073-.056-.106-.122-.087-.18l.22-.644a.05.05 0 0 0-.01-.052c-.013-.016-.037-.022-.057-.023v-.001a.06.06 0 0 0-.033.01c-.278.145-.514.385-.594.62-.11.322.053.662.377.858.074.13.138.328.137.63l-.002.602H2.815a.336.336 0 0 1-.343-.331v-5.13c0-.183.153-.331.343-.331zm1.929.844c-.16 0-.289.12-.304.276a.166.166 0 0 1 .155-.107h3.533c.071 0 .13.044.155.107a.306.306 0 0 0-.305-.276H4.744zm-.304.276a.171.171 0 0 0-.013.06v1.17c0 .022.005.043.013.061-.002-.011-.004-.022-.004-.033V4.673c0-.011.002-.021.004-.032zm0 1.291a.306.306 0 0 0 .304.274h3.234c.16 0 .288-.12.305-.274a.166.166 0 0 1-.155.107H4.595a.166.166 0 0 1-.155-.107zm3.843 0a.168.168 0 0 0 .012-.06V4.7c0-.02-.005-.04-.012-.059l.003.03V5.9l-.003.033zm-3.084-.99a.335.335 0 0 0-.345.335.335.335 0 0 0 .67 0 .335.335 0 0 0-.325-.335zm1.172 0a.335.335 0 0 0-.344.335.335.335 0 0 0 .669 0 .335.335 0 0 0-.325-.335zm1.172 0a.335.335 0 0 0-.345.335.335.335 0 0 0 .67 0 .335.335 0 0 0-.325-.335z"/><path d="M49.69 59.135l-2.388-3.03a.311.311 0 0 0-.245-.12h-6.274a.311.311 0 0 0-.244.12l-2.39 3.03a.305.305 0 0 0-.067.193v8.516c0 .172.14.313.312.313h11.05c.171 0 .312-.141.312-.313v-8.516a.289.289 0 0 0-.065-.193zm-.849-.068h-4.608v-2.456h2.673zm-7.906-2.456h2.672v2.456H39zm-2.228 10.92v-7.839H49.13v7.84z"/></svg>

<?xml version="1.0" encoding="UTF-8" standalone="no"?>
<svg
   xmlns:dc="http://purl.org/dc/elements/1.1/"
   xmlns:cc="http://creativecommons.org/ns#"
   xmlns:rdf="http://www.w3.org/1999/02/22-rdf-syntax-ns#"
   xmlns:svg="http://www.w3.org/2000/svg"
   xmlns="http://www.w3.org/2000/svg"
   xmlns:sodipodi="http://sodipodi.sourceforge.net/DTD/sodipodi-0.dtd"
   xmlns:inkscape="http://www.inkscape.org/namespaces/inkscape"
   width="48"
   height="48"
   viewBox="0 0 12.7 12.7"
   version="1.1"
   id="svg12"
   sodipodi:docname="gdm-setup.svg"
   inkscape:version="0.92.4 (5da689c313, 2019-01-14)">
  <metadata
     id="metadata18">
    <rdf:RDF>
      <cc:Work
         rdf:about="">
        <dc:format>image/svg+xml</dc:format>
        <dc:type
           rdf:resource="http://purl.org/dc/dcmitype/StillImage" />
        <dc:title></dc:title>
      </cc:Work>
    </rdf:RDF>
  </metadata>
  <defs
     id="defs16" />
  <sodipodi:namedview
     pagecolor="#ffffff"
     bordercolor="#666666"
     borderopacity="1"
     objecttolerance="10"
     gridtolerance="10"
     guidetolerance="10"
     inkscape:pageopacity="0"
     inkscape:pageshadow="2"
     inkscape:window-width="1087"
     inkscape:window-height="480"
     id="namedview14"
     showgrid="false"
     inkscape:zoom="4.9166667"
     inkscape:cx="2.1355932"
     inkscape:cy="24"
     inkscape:window-x="0"
     inkscape:window-y="25"
     inkscape:window-maximized="0"
     inkscape:current-layer="svg12" />
  <path
     d="m 6.344,0.073 a 6.29,6.29 0 0 0 -6.29,6.29 6.29,6.29 0 0 0 6.29,6.288 6.29,6.29 0 0 0 6.29,-6.289 6.29,6.29 0 0 0 -6.29,-6.29 z M 6.326,1.009 A 5.407,5.407 0 0 1 11.733,6.416 5.407,5.407 0 0 1 6.326,11.823 5.407,5.407 0 0 1 0.92,6.416 5.407,5.407 0 0 1 6.326,1.01 Z"
     id="path2"
     inkscape:connector-curvature="0"
     style="fill:#e6e6e6" />
  <path
     d="m 49.69,59.135 -2.388,-3.03 a 0.311,0.311 0 0 0 -0.245,-0.12 h -6.274 a 0.311,0.311 0 0 0 -0.244,0.12 l -2.39,3.03 a 0.305,0.305 0 0 0 -0.067,0.193 v 8.516 c 0,0.172 0.14,0.313 0.312,0.313 h 11.05 c 0.171,0 0.312,-0.141 0.312,-0.313 v -8.516 a 0.289,0.289 0 0 0 -0.065,-0.193 z m -0.849,-0.068 h -4.608 v -2.456 h 2.673 z m -7.906,-2.456 h 2.672 v 2.456 H 39 Z m -2.228,10.92 V 59.692 H 49.13 v 7.84 z"
     id="path4"
     inkscape:connector-curvature="0" />
  <path
     d="M 2.424,3.052 A 0.381,0.381 0 0 0 2.042,3.434 v 5.918 c 0,0.212 0.17,0.382 0.382,0.382 h 7.827 c 0.212,0 0.382,-0.17 0.382,-0.382 V 3.434 A 0.381,0.381 0 0 0 10.251,3.052 Z m 0.391,0.469 h 7.023 c 0.19,0 0.342,0.147 0.342,0.33 v 5.13 A 0.336,0.336 0 0 1 9.838,9.313 H 2.815 A 0.336,0.336 0 0 1 2.472,8.982 v -5.13 c 0,-0.184 0.153,-0.331 0.343,-0.331 z"
     overflow="visible"
     style="color:#000000;overflow:visible;fill:#e6e6e6;fill-rule:evenodd;marker:none"
     id="path6"
     inkscape:connector-curvature="0" />
  <path
     d="m 4.744,4.365 c -0.16,0 -0.289,0.12 -0.305,0.276 A 0.166,0.166 0 0 1 4.595,4.533 h 3.532 c 0.072,0 0.132,0.045 0.156,0.108 A 0.306,0.306 0 0 0 7.978,4.365 Z m 3.539,0.276 c 0,0.01 0.003,0.021 0.003,0.032 V 5.899 L 8.283,5.933 A 0.167,0.167 0 0 0 8.295,5.872 V 4.7 A 0.167,0.167 0 0 0 8.283,4.64 Z m 0,1.292 A 0.166,0.166 0 0 1 8.127,6.039 H 4.595 A 0.167,0.167 0 0 1 4.439,5.933 0.306,0.306 0 0 0 4.744,6.206 h 3.234 c 0.16,0 0.288,-0.12 0.305,-0.273 z m -3.844,0 C 4.439,5.921 4.436,5.91 4.436,5.899 V 4.673 c 0,-0.011 0.002,-0.021 0.003,-0.032 a 0.169,0.169 0 0 0 -0.012,0.06 v 1.17 c 0,0.022 0.005,0.043 0.012,0.062 z m 0.76,-0.991 a 0.335,0.335 0 0 0 -0.344,0.335 0.335,0.335 0 0 0 0.67,0 0.335,0.335 0 0 0 -0.326,-0.335 z m 1.172,0 a 0.335,0.335 0 0 0 -0.345,0.335 0.335,0.335 0 0 0 0.67,0 0.335,0.335 0 0 0 -0.325,-0.335 z m 1.172,0 a 0.335,0.335 0 0 0 -0.345,0.335 0.335,0.335 0 0 0 0.67,0 0.335,0.335 0 0 0 -0.325,-0.335 z"
     id="path8"
     inkscape:connector-curvature="0"
     style="fill:#e6e6e6" />
  <path
     d="M 6.008,6.593 A 0.061,0.061 0 0 0 5.975,6.603 C 5.697,6.748 5.461,6.988 5.38,7.223 5.271,7.545 5.435,7.885 5.758,8.081 5.832,8.211 5.896,8.41 5.895,8.711 l -0.016,3.766 0.832,0.008 0.016,-3.766 c 0,-0.272 0.055,-0.459 0.12,-0.587 A 0.765,0.765 0 0 0 7.242,7.704 C 7.322,7.469 7.274,7.158 7.132,6.904 A 0.066,0.066 0 0 0 7.066,6.87 C 7.038,6.872 7.014,6.888 7.006,6.912 L 6.786,7.553 C 6.767,7.611 6.699,7.647 6.602,7.662 A 0.905,0.905 0 0 1 6.252,7.636 0.84,0.84 0 0 1 5.942,7.493 C 5.869,7.437 5.836,7.372 5.855,7.313 L 6.075,6.669 A 0.05,0.05 0 0 0 6.065,6.617 C 6.052,6.601 6.028,6.595 6.008,6.594 Z"
     id="path10"
     inkscape:connector-curvature="0"
     style="fill:#e6e6e6;fill-rule:evenodd" />
</svg>
